public/images/file-maker/testimonial-before.svg

<svg width="432" height="535" viewBox="0 0 432 535" fill="none" xmlns="http://www.w3.org/2000/svg">
<path d="M-81.3932 291.169H-9.51797L-23.2083 212.663H-81.3932C-112.197 212.663 -136.155 188.769 -136.155 158.049C-136.155 127.329 -112.197 103.436 -81.3932 103.436H-40.3214L-54.0121 31.7556C-60.8574 4.44886 -40.3216 -22.8579 -9.51797 -29.6845C17.863 -36.5112 45.244 -16.0312 52.0893 14.6889L69.2024 103.436H175.303L161.613 31.7556C154.768 4.44886 175.304 -22.8579 206.107 -29.6845C233.488 -36.5112 260.869 -16.0312 267.715 14.6889L284.828 103.436H377.238C408.042 103.436 432 127.329 432 158.049C432 188.769 401.197 212.663 370.393 212.663H298.518L312.208 291.169H370.393C401.197 291.169 425.155 315.063 425.155 345.783C425.155 376.503 401.197 400.396 370.393 400.396H329.321L343.012 472.077C349.857 499.383 329.322 526.69 298.518 533.517C277.982 540.343 243.756 523.277 236.911 489.143L219.798 400.396H113.697L127.387 472.077C134.232 499.383 113.696 526.69 82.8927 533.517C62.357 540.343 28.1307 523.277 21.2854 489.143L4.17233 400.396H-88.2384C-119.042 400.396 -143 376.503 -143 345.783C-132.732 315.063 -108.774 291.169 -81.3932 291.169ZM100.006 291.169H206.107L192.417 212.663H86.3155L100.006 291.169Z" fill="url(#paint0_linear)" fill-opacity="0.5"/>
<path d="M-7.5477 290.826L-7.13904 293.169H-9.51797H-81.3932C-107.469 293.169 -130.815 315.958 -140.999 346.107C-140.831 375.561 -117.834 398.396 -88.2384 398.396H4.17233H5.82352L6.13617 400.018L23.2464 488.75C23.2469 488.752 23.2473 488.755 23.2478 488.757C26.5537 505.231 36.4622 517.587 48.0346 525.006C59.6704 532.466 72.7305 534.787 82.2618 531.619L82.3595 531.586L82.46 531.564C112.469 524.913 131.948 498.496 125.447 472.563L125.433 472.508L125.422 472.452L111.732 400.772L111.279 398.396H113.697H219.798H221.449L221.761 400.018L238.872 488.75C238.872 488.752 238.873 488.755 238.873 488.757C242.179 505.231 252.087 517.587 263.66 525.006C275.296 532.466 288.356 534.787 297.887 531.619L297.985 531.586L298.085 531.564C328.095 524.913 347.573 498.496 341.072 472.563L341.058 472.508L341.048 472.452L327.357 400.772L326.903 398.396H329.321H370.393C400.097 398.396 423.155 375.393 423.155 345.783C423.155 316.173 400.097 293.169 370.393 293.169H312.208H310.527L310.238 291.513L296.548 213.006L296.139 210.663H298.518H370.393C385.298 210.663 400.245 204.873 411.453 195.352C422.653 185.837 430 172.707 430 158.049C430 128.439 406.942 105.436 377.238 105.436H284.828H283.177L282.864 103.814L265.756 15.0959C259.08 -14.8053 232.602 -34.2289 206.591 -27.7439L206.566 -27.7376L206.54 -27.7319C176.531 -21.0812 157.052 5.3358 163.553 31.2693L163.567 31.3245L163.578 31.3804L177.268 103.061L177.722 105.436H175.303H69.2024H67.5512L67.2386 103.814L50.1308 15.0954C43.454 -14.8055 16.9761 -34.2289 -9.03415 -27.7439L-9.0596 -27.7376L-9.08524 -27.7319C-39.0947 -21.0812 -58.5732 5.3358 -52.0722 31.2693L-52.0583 31.3245L-52.0477 31.3804L-38.3569 103.061L-37.9032 105.436H-40.3214H-81.3932C-111.097 105.436 -134.155 128.439 -134.155 158.049C-134.155 187.66 -111.097 210.663 -81.3932 210.663H-23.2083H-21.5268L-21.238 212.319L-7.5477 290.826ZM100.006 293.169H98.3244L98.0355 291.513L84.3452 213.006L83.9366 210.663H86.3155H192.417H194.098L194.387 212.319L208.078 290.826L208.486 293.169H206.107H100.006Z" stroke="#FF8A00" stroke-opacity="0.4" stroke-width="4"/>
<defs>
<linearGradient id="paint0_linear" x1="144.5" y1="-31" x2="144.5" y2="535" gradientUnits="userSpaceOnUse">
<stop stop-color="#FF9900"/>
<stop offset="1" stop-color="#FF6B00"/>
</linearGradient>
</defs>
</svg>

<svg xmlns="http://www.w3.org/2000/svg" width="432" height="535" fill="none" xmlns:v="https://vecta.io/nano"><path d="M-81.393 291.169h71.875l-13.69-78.506h-58.185c-30.804 0-54.762-23.894-54.762-54.614s23.958-54.613 54.762-54.613h41.072l-13.691-71.68c-6.845-27.307 13.691-54.613 44.494-61.44 27.381-6.827 54.762 13.653 61.607 44.373l17.113 88.747h106.101l-13.69-71.68c-6.845-27.307 13.691-54.613 44.494-61.44 27.381-6.827 54.762 13.653 61.608 44.373l17.113 88.747h92.41c30.804 0 54.762 23.893 54.762 54.613s-30.803 54.614-61.607 54.614h-71.875l13.69 78.506h58.185c30.804 0 54.762 23.894 54.762 54.614s-23.958 54.613-54.762 54.613h-41.072l13.691 71.681c6.845 27.306-13.69 54.613-44.494 61.44-20.536 6.826-54.762-10.24-61.607-44.374l-17.113-88.747H113.697l13.69 71.681c6.845 27.306-13.691 54.613-44.494 61.44-20.536 6.826-54.762-10.24-61.607-44.374L4.172 400.396h-92.411c-30.804 0-54.762-23.893-54.762-54.613 10.268-30.72 34.226-54.614 61.607-54.614zm181.399 0h106.101l-13.69-78.506H86.316l13.691 78.506z" fill="url(#A)" fill-opacity=".5"/><path d="M-7.548 290.826l.409 2.343h-2.379-71.875c-26.076 0-49.422 22.789-59.606 52.938.168 29.454 23.165 52.289 52.761 52.289H4.172h1.651l.313 1.622 17.11 88.732c3.307 16.481 13.216 28.837 24.788 36.256 11.636 7.46 24.696 9.781 34.227 6.613l.098-.033.1-.022c30.009-6.651 49.488-33.068 42.987-59.001l-.014-.055-.011-.056-13.69-71.68-.453-2.376h2.418 106.101 1.651l.312 1.622 17.111 88.732c3.307 16.481 13.215 28.837 24.788 36.256 11.636 7.46 24.696 9.781 34.227 6.613l.098-.033.1-.022c30.01-6.651 49.488-33.068 42.987-59.001l-.014-.055-.01-.056-13.691-71.68-.454-2.376h2.418 41.072c29.704 0 52.762-23.003 52.762-52.613s-23.058-52.614-52.762-52.614h-58.185-1.681l-.289-1.656-13.69-78.507-.409-2.343h2.379 71.875c14.905 0 29.852-5.79 41.06-15.311 11.2-9.515 18.547-22.645 18.547-37.303 0-29.61-23.058-52.613-52.762-52.613h-92.41-1.651l-.313-1.622-17.108-88.718c-6.676-29.901-33.154-49.325-59.165-42.84l-.025.006-.026.006c-30.009 6.651-49.488 33.068-42.987 59.001l.014.055.011.056 13.69 71.681.454 2.375h-2.419H69.202h-1.651l-.313-1.622-17.108-88.719C43.454-14.805 16.976-34.229-9.034-27.744l-.025.006-.026.006c-30.009 6.651-49.488 33.068-42.987 59.001l.014.055.011.056 13.691 71.681.454 2.375h-2.418-41.072c-29.704 0-52.762 23.003-52.762 52.613s23.058 52.614 52.762 52.614h58.185 1.681l.289 1.656 13.69 78.507zm107.554 2.343h-1.682l-.289-1.656-13.69-78.507-.409-2.343h2.379 106.102 1.681l.289 1.656 13.691 78.507.408 2.343h-2.379-106.101z" stroke="#ff8a00" stroke-opacity=".4" stroke-width="4"/><defs><linearGradient id="A" x1="144.5" y1="-31" x2="144.5" y2="535" gradientUnits="userSpaceOnUse"><stop stop-color="#f90"/><stop offset="1" stop-color="#ff6b00"/></linearGradient></defs></svg>
